Origami/64x64/apps/kdenlive.svg

<svg width="64" height="64" version="1" xmlns="http://www.w3.org/2000/svg">
 <path d="M 60,56.222222 V 11.777778 C 60,10.238889 58.7512,9 57.2,9 H 6.8 C 5.2488,9 4,10.238889 4,11.777778 V 56.222222 C 4,57.761112 5.2488,59 6.8,59 h 50.4 c 1.5512,0 2.8,-1.238888 2.8,-2.777778 z" style="opacity:.2"/>
 <path d="M 60,55.222222 V 10.777778 C 60,9.2388888 58.7512,8 57.2,8 H 6.8 C 5.2488,8 4,9.2388888 4,10.777778 V 55.222222 C 4,56.761112 5.2488,58 6.8,58 h 50.4 c 1.5512,0 2.8,-1.238888 2.8,-2.777778 z" style="fill:#4f4f4f"/>
 <path d="M 6.8007812 8 C 5.2495812 8 4 9.2384546 4 10.777344 L 4 11.777344 C 4 10.238455 5.2495812 9 6.8007812 9 L 57.199219 9 C 58.750419 9 60 10.238455 60 11.777344 L 60 10.777344 C 60 9.2384546 58.750419 8 57.199219 8 L 6.8007812 8 z" style="fill:#ffffff;opacity:.1"/>
 <path d="m 30,8 0.07812,50 H 34 V 8 Z" style="fill:#e14c39"/>
 <path d="m22 17v3h4v-3zm-4 6v3h8v-3zm-8 6v3h16v-3zm-4 6v3h20v-3zm4 6v3h16v-3zm8 6v3h8v-3z" style="fill-rule:evenodd;opacity:.2"/>
 <path d="m22 16v3h4v-3zm-4 6v3h8v-3zm-8 6v3h16v-3zm-4 6v3h20v-3zm4 6v3h16v-3zm8 6v3h8v-3z" style="fill-rule:evenodd;fill:#83b9f5"/>
 <path d="m40 7h-16l4 6 3.999998 6 4-6z" style="opacity:.2"/>
 <path d="m40 6h-16l4 6 3.999998 6 4-6z" style="fill:#ff6161"/>
 <path d="m39.555294 22.401844c-0.736528 0.03972-1.529608 0.687324-1.527754 1.404914l-0.02754 21.186744c0 0.956862 1.408318 1.789478 2.213958 1.221036l15.17856-10.62959c0.8109-0.561416 0.80905-1.878372 0-2.442278l-15.150406-10.556956c-0.20223-0.14086-0.440704-0.19698-0.68632-0.18386z" style="opacity:.2"/>
 <path d="m39.555294 21.401844c-0.736528 0.03972-1.529608 0.687324-1.527754 1.404914l-0.02754 21.186744c0 0.956862 1.408318 1.789478 2.213958 1.221036l15.17856-10.62959c0.8109-0.561416 0.80905-1.878372 0-2.442278l-15.150406-10.556956c-0.20223-0.14086-0.440704-0.19698-0.68632-0.18386z" style="fill:#3a7cca"/>
 <path d="m39.554688 21.402344c-0.736528 0.03972-1.529198 0.686707-1.527344 1.404297l-0.027344 21.1875c0 0.002705 0.001931 0.005108 0.001953 0.007812l0.025391-20.195312c-0.001854-0.71759 0.790816-1.364577 1.527344-1.404297h0.001953c0.245616-0.01312 0.483316 0.042734 0.685547 0.183594l15.15039 10.55664c0.258169 0.179944 0.423977 0.440324 0.517578 0.72461 0.201781-0.606888 0.034711-1.339666-0.517578-1.72461l-15.15039-10.55664c-0.202231-0.14086-0.439931-0.196714-0.685547-0.183594h-0.001953z" style="fill:#ffffff;opacity:.1"/>
 <path d="m22 16v1h4v-1h-4zm-4 6v1h8v-1h-8zm-8 6v1h16v-1h-16zm-4 6v1h20v-1h-20zm4 6v1h16v-1h-16zm8 6v1h8v-1h-8z" style="fill-rule:evenodd;fill:#ffffff;opacity:.1"/>
</svg>

<svg xmlns="http://www.w3.org/2000/svg" width="64" height="64" version="1">
 <path style="opacity:0.2" d="M 60,56.222222 V 11.777778 C 60,10.238889 58.7512,9 57.2,9 H 6.8 C 5.2488,9 4,10.238889 4,11.777778 V 56.222222 C 4,57.761112 5.2488,59 6.8,59 h 50.4 c 1.5512,0 2.8,-1.238888 2.8,-2.777778 z"/>
 <path style="fill:#4f4f4f" d="M 60,55.222222 V 10.777778 C 60,9.2388888 58.7512,8 57.2,8 H 6.8 C 5.2488,8 4,9.2388888 4,10.777778 V 55.222222 C 4,56.761112 5.2488,58 6.8,58 h 50.4 c 1.5512,0 2.8,-1.238888 2.8,-2.777778 z"/>
 <path style="opacity:0.1;fill:#ffffff" d="M 6.8007812 8 C 5.2495812 8 4 9.2384546 4 10.777344 L 4 11.777344 C 4 10.238455 5.2495812 9 6.8007812 9 L 57.199219 9 C 58.750419 9 60 10.238455 60 11.777344 L 60 10.777344 C 60 9.2384546 58.750419 8 57.199219 8 L 6.8007812 8 z"/>
 <path style="fill:#f38577" d="m 30,8 0.07812,50 H 34 V 8 Z"/>
 <path style="opacity:0.2;fill-rule:evenodd" d="m 22,17 v 3 h 4 v -3 z m -4,6 v 3 h 8 v -3 z m -8,6 v 3 h 16 v -3 z m -4,6 v 3 h 20 v -3 z m 4,6 v 3 h 16 v -3 z m 8,6 v 3 h 8 v -3 z"/>
 <path style="fill:#83b9f5;fill-rule:evenodd" d="m 22,16 v 3 h 4 v -3 z m -4,6 v 3 h 8 v -3 z m -8,6 v 3 h 16 v -3 z m -4,6 v 3 h 20 v -3 z m 4,6 v 3 h 16 v -3 z m 8,6 v 3 h 8 v -3 z"/>
 <path style="opacity:0.2" d="M 40,7 H 31.999998 24 l 4,6 3.999998,6 4,-6 z"/>
 <path style="fill:#d85656" d="M 40,6 H 31.999998 24 l 4,6 3.999998,6 4,-6 z"/>
 <path style="opacity:0.2" d="m 39.555294,22.401844 c -0.736528,0.03972 -1.529608,0.687324 -1.527754,1.404914 L 38,44.993502 c 0,0.956862 1.408318,1.789478 2.213958,1.221036 l 15.17856,-10.62959 c 0.8109,-0.561416 0.80905,-1.878372 0,-2.442278 L 40.242112,22.585714 c -0.20223,-0.14086 -0.440704,-0.19698 -0.68632,-0.18386 z"/>
 <path style="fill:#527eb2" d="m 39.555294,21.401844 c -0.736528,0.03972 -1.529608,0.687324 -1.527754,1.404914 L 38,43.993502 c 0,0.956862 1.408318,1.789478 2.213958,1.221036 l 15.17856,-10.62959 c 0.8109,-0.561416 0.80905,-1.878372 0,-2.442278 L 40.242112,21.585714 c -0.20223,-0.14086 -0.440704,-0.19698 -0.68632,-0.18386 z"/>
 <path style="opacity:0.1;fill:#ffffff" d="M 39.554688 21.402344 C 38.81816 21.442064 38.02549 22.089051 38.027344 22.806641 L 38 43.994141 C 38 43.996846 38.001931 43.999249 38.001953 44.001953 L 38.027344 23.806641 C 38.02549 23.089051 38.81816 22.442064 39.554688 22.402344 L 39.556641 22.402344 C 39.802257 22.389224 40.039957 22.445078 40.242188 22.585938 L 55.392578 33.142578 C 55.650747 33.322522 55.816555 33.582902 55.910156 33.867188 C 56.111937 33.2603 55.944867 32.527522 55.392578 32.142578 L 40.242188 21.585938 C 40.039957 21.445078 39.802257 21.389224 39.556641 21.402344 L 39.554688 21.402344 z"/>
 <path style="opacity:0.1;fill:#ffffff;fill-rule:evenodd" d="M 22 16 L 22 17 L 26 17 L 26 16 L 22 16 z M 18 22 L 18 23 L 26 23 L 26 22 L 18 22 z M 10 28 L 10 29 L 26 29 L 26 28 L 10 28 z M 6 34 L 6 35 L 26 35 L 26 34 L 6 34 z M 10 40 L 10 41 L 26 41 L 26 40 L 10 40 z M 18 46 L 18 47 L 26 47 L 26 46 L 18 46 z"/>
</svg>
